!!! OTL: Berkowitz206
!!! Chapter: 1
!!! Section: II
!!! Page: 46
!!! Mode: 
!!! Encoder: DJB
**kern
*staff1
*I"Piano
=1-
*clefF4
*k[b-]
*d:
*M3/4
4r
4r
4A\
=2
[4d\
8d\L]
8c\J
8B-\L
8A\J
=3
4G\
4A\
4B-\
=4
[4c\
8c\L]
8B-\J
8A\L
8G\J
=5
4F\
4r
4F\
=6
[4B-\
8B-\L]
8A\J
8G\L
8F\J
=7
4E\
4F\
4G\
=8
2A\
8c\L
8B-\J
=9
4A\
4r
4A\
=10
!!linebreak:original
[4d\
8d\L]
8c\J
8B-\L
8A\J
=11
8G\L
8A\J
4B-\
8A\L
8B-\J
=12
[4c\
8c\L]
8B-\J
8A\L
8G\J
=13
8F\L
8E\J
8F\L
8G\J
4A\
=14
[4B-\
8B-\L]
8A\J
8G\L
8F\J
=15
4E\
4F\
4G\
=16
[4A\
8A\L]
8F\J
8E\L
8A\J
=17
4D\
2r
==
*-
